media/icon/gmail.svg

<svg width="23" height="23" viewBox="0 0 23 23" fill="none" xmlns="http://www.w3.org/2000/svg">
<path d="M11.1033 5.04626C12.8592 5.04626 14.5138 5.82467 15.7263 7.04151V7.0451C15.7263 6.46076 16.1195 6.01873 16.6628 6.01873H16.8008C17.6583 6.01873 17.8301 6.82732 17.8301 7.08248L17.8337 16.1639C17.774 16.759 18.4482 17.0666 18.8227 16.6843C20.2782 15.1871 22.0226 8.97998 17.9163 5.38623C14.0868 2.03182 8.94706 2.58598 6.21438 4.46911C3.30991 6.47586 1.45338 10.9084 3.25672 15.0743C5.2261 19.616 10.8561 20.9709 14.2069 19.6196C15.9031 18.9347 16.6851 21.2246 14.922 21.9743C12.2648 23.1077 4.85953 22.992 1.40091 17.0027C-0.935748 12.9568 -0.812124 5.83976 5.38781 2.15257C10.1265 -0.669957 16.3789 0.112044 20.1481 4.0472C24.0868 8.16492 23.859 15.8692 20.0137 18.8642C18.2721 20.2263 15.6861 18.9016 15.7048 16.9171L15.6853 16.2703C14.4728 17.4713 12.8592 18.1757 11.1033 18.1757C7.6296 18.1757 4.57131 15.1167 4.57131 11.6465C4.57131 8.13904 7.6296 5.0477 11.1033 5.0477V5.04626ZM15.4726 11.3957C15.3411 8.85348 13.4543 7.32254 11.1745 7.32254H11.0882C8.46047 7.32254 7.00069 9.39254 7.00069 11.7393C7.00069 14.3706 8.76378 16.0324 11.0774 16.0324C13.6599 16.0324 15.3554 14.1428 15.4791 11.9074L15.4726 11.3957Z" fill="white"/>
</svg>

<svg xmlns="http://www.w3.org/2000/svg" width="23" height="23" fill="none"><path fill="#fff" d="M11.103 5.046c1.756 0 3.41.779 4.623 1.996v.003c0-.584.393-1.026.937-1.026h.138c.857 0 1.03.808 1.03 1.063l.003 9.082c-.06.595.614.903.989.52 1.455-1.497 3.2-7.704-.907-11.298-3.83-3.354-8.969-2.8-11.702-.917-2.904 2.007-4.76 6.44-2.957 10.605 1.97 4.542 7.6 5.897 10.95 4.546 1.696-.685 2.478 1.605.715 2.354-2.657 1.134-10.062 1.018-13.521-4.971C-.936 12.957-.812 5.84 5.388 2.153 10.127-.67 16.378.112 20.148 4.047c3.939 4.118 3.711 11.822-.134 14.817-1.742 1.362-4.328.038-4.31-1.947l-.019-.647c-1.212 1.201-2.826 1.906-4.582 1.906-3.473 0-6.532-3.06-6.532-6.53 0-3.507 3.059-6.598 6.532-6.598zm4.37 6.35c-.132-2.543-2.019-4.073-4.299-4.073h-.086c-2.628 0-4.087 2.07-4.087 4.416 0 2.632 1.763 4.293 4.076 4.293 2.583 0 4.278-1.89 4.402-4.125z"/></svg>
